X:126
T:East Indian. THO5.126, The
M:6/8
L:1/8
B:Thompson's Complete Collection of 200 Favourite Dances Vol.5
F:https://www.libraryofdance.org/manuals/1780c-Thompson-Compleat-5.pdf
Z:vmp. Peter Dunk 2024
Q:3/8=100
K:D
A|ded dfg|afd ecA|ded dfg|afd e2f|
g2g gab|afd ecA|Bgf eac|d3 D2:|
|:F/G/|A2A AFD|BGE AFD|FGA Bcd|Bed c2A|
FAd GBe|Acf Bdg|cea gfe|d3 D2:|
W:
W:Right hands across, half round left, back again ./.
W:Lead down the middle, up again & cast off ./:
W:Hands six quite round :/.
W:Allemand with your Partner :/:

